X:111
T:Scollard's Kiln
B:Terry "Cuz" Teahan "Sliabh Luachra on Parade" 1980
Z:Patrick Cavanagh
M:2/4
L:1/8
R:Polka
K:D
E | FF ED | d2 ed | cA AF | GB AG | 
FF ED | d2 e>d | c/B/A Bc/B/ | A2 A :| 
g | af ge | fd e>A | B/c/d ef | g2 gf/g/ | 
af ge | fd ed | c/B/A Bc/B/ | A2 A :| 

